X:0501
T:Drown Drouth.
M:9/8
L:1/8
Q:3/8=120
I: :: ::
Z:Jack Campin * www.campin.me.uk * 2009
K:D
A|(F/G/A).F dAG  F2D  |(F/G/A).F GEE      E2
G|(F/G/A).F def  F2D  |(F/G/A).E FDD      D2:|
A| ded      afb  afd  |Tc2A     (c/d/e).e e2
f| ded      abc' d'c'b| afd'    Te2d      d2:|

